icons/mobile/24/svg/reader-view-24.svg

<svg width="24" height="24" viewBox="0 0 24 24" fill="none" xmlns="http://www.w3.org/2000/svg">
<path d="M13.125 15.2499C13.608 15.2499 14 15.6419 14 16.1249C14 16.6079 13.608 16.9999 13.125 16.9999H9.875C9.392 16.9999 9 16.6079 9 16.1249C9 15.6419 9.392 15.2499 9.875 15.2499H13.125Z" fill="black"/>
<path d="M15.125 11.1249C15.6082 11.1249 16 11.5167 16 11.9999C16 12.4832 15.6082 12.8749 15.125 12.8749H9.875C9.39175 12.8749 9 12.4832 9 11.9999C9 11.5167 9.39175 11.1249 9.875 11.1249H15.125Z" fill="black"/>
<path d="M15.125 6.99995C15.608 6.99995 16 7.39195 16 7.87495C16 8.35795 15.608 8.74995 15.125 8.74995H9.875C9.392 8.74995 9 8.35795 9 7.87495C9 7.39195 9.392 6.99995 9.875 6.99995H15.125Z" fill="black"/>
<path fill-rule="evenodd" clip-rule="evenodd" d="M7.58887 2.39741C10.8039 1.87041 14.1412 1.86762 17.3682 2.38862C18.894 2.63564 19.9998 3.93473 20 5.47748V18.4833C19.9998 20.0422 18.893 21.3544 17.3701 21.6044C15.7651 21.8664 14.126 21.9999 12.5 21.9999C10.857 21.9999 9.20291 21.8646 7.58691 21.5966C6.08809 21.3496 5.00015 20.0421 5 18.4863V5.47456C5.00019 3.9348 6.0891 2.64047 7.58887 2.39741ZM17.0889 4.11713C14.0479 3.62415 10.902 3.62701 7.87109 4.12299C7.23122 4.22797 6.75019 4.80772 6.75 5.47456V18.4853C6.75016 19.1692 7.23218 19.7651 7.87207 19.8701C10.9 20.371 14.047 20.3739 17.0869 19.8769C17.7608 19.7659 18.2498 19.1792 18.25 18.4824V5.47651C18.2498 4.7977 17.7617 4.22511 17.0889 4.11713Z" fill="black"/>
</svg>

<!-- This Source Code Form is subject to the terms of the Mozilla Public
   - License, v. 2.0. If a copy of the MPL was not distributed with this
   - file, You can obtain one at http://mozilla.org/MPL/2.0/. -->
<svg xmlns="http://www.w3.org/2000/svg" width="24" height="24" fill="none" viewBox="0 0 24 24">
    <path fill="#000" d="M13.125 15.25a.875.875 0 0 1 0 1.75h-3.25a.875.875 0 0 1 0-1.75zm2-4.125a.875.875 0 0 1 0 1.75h-5.25a.875.875 0 1 1 0-1.75zm0-4.125a.875.875 0 0 1 0 1.75h-5.25a.875.875 0 0 1 0-1.75z" />
    <path fill="#000" fill-rule="evenodd" d="M7.589 2.397a30.6 30.6 0 0 1 9.78-.008A3.12 3.12 0 0 1 20 5.477v13.006a3.14 3.14 0 0 1-2.63 3.121 30.1 30.1 0 0 1-9.783-.008C6.088 21.35 5 20.043 5 18.487V5.475c0-1.54 1.09-2.835 2.589-3.078m9.5 1.72a28.8 28.8 0 0 0-9.218.006c-.64.105-1.12.685-1.121 1.352v13.01c0 .684.482 1.28 1.122 1.385 3.028.501 6.175.504 9.215.007a1.4 1.4 0 0 0 1.163-1.395V5.477c0-.68-.488-1.252-1.161-1.36" clip-rule="evenodd" />
</svg>
